X:4527
T:Duke of York's March. TLY.003
M:4/4
L:1/8
Q:180
S:Wm.Tildesley,Swinton,Lancs.1860s.
R:March
O:England.
A:Lancashire.
H:1860.
Z:Taz Tarry.
K:D
D2 D>D F2 F>F| A-FA-F D2 A>A|d-Bd-A dAFD|A2A>A A2 z2|!
a3f d2f2|e2 e>g f2za|a3f f-dg-f|e2 e>e e2 z2:|!
|:A2 A>A A(efg)|A2A>A A(dfa)|g-eee f-ddd|bagf ~f2e2|!
"*"d3f/2e/2 dAB=c|=cB B4 ^c/2d/2e/2f/2|ggff eedd|e2 e>e e2 z2|!
D2D>D F2 F>F| A-FA-F D2g2|f-aa-f g-ee-c|d2d>dd2:|]
%Crotchet in MS.
